X: 15861
T: Grá I BhFolach
R: waltz
M: 3/4
K: Eminor
GA|B2A2G2|E2D2B,A,|G,2B,2D2|E4EF|G2A2B2|A3GE2|cBAG ED|E4EF|
GAGF ED|E2EB, EF|GABA B^c|d4BA|G2A2B2|A3GE2|cBAG ED|E4:|
|:D2|G2B2d2|e2 dedB|d2B2G2|A4Bd|e2efed|ef g2e2|fedB de|d4Bd|
e2efed|ef g2e2|fedB AG|E3DGA|B2D2BA|G2 E2 B,A,|G,2B,2D2|E4:|

